!!!COM: Gonzaga, Francisca
!!!CDT: 1847/10/17-1935/02/28
!!!OTL: Tango Da cena cômica “Há alguma novidade?”
**kern	**kern	**text
*part1	*part1	*part1
*staff2	*staff1	*staff1
*clefF4	*clefG2	*
*k[b-]	*k[b-]	*
*M2/4	*M2/4	*
*	*8va	*
=1	=1	=1
*F:	*F:	*
.	(8qcccc/	.
16CKL	4eeee^)	Ah!
8B- 8c 8e	.	.
16B-Jk 16c 16e	.	.
8EL	16r	.
.	(16bbb-LL	.
8B-J 8c 8e	16dddd	.
.	16gggJJ)	.
=2	=2	=2
16CKL	(16aaaLL	.
8A 8c 8f	16cccc	.
.	16fff	.
16AJk 16c 16f	16aaaJJ)	.
8CL	4ccc^	.
8AJ 8c 8f	.	.
*	*X8va	*
=3	=3	=3
.	(8qccc/	.
16EKL	4eee^)	Ah!
8B- 8c 8e	.	.
16B-Jk 16c 16e	.	.
8CL	16r	.
.	(16bb-LL	.
8B-J 8c 8e	16ddd	.
.	16ggJJ)	.
=4	=4	=4
16FFKL	(16aaLL	.
8A 8c 8f	16ccc	.
.	16ff	.
16AJk 16c 16f	16aaJJ)	.
8FL	4cc^	.
8AJ 8c 8f	.	.
=5	=5	=5
.	(8qbbn/	.
16GGKL	4fff^)	Ah!
8G 8Bn 8f	.	.
16GJk 16B 16f	.	.
8DL	16r	.
.	(16bbLL	.
8GJ 8B 8f	16ddd	.
.	16ggJJ)	.
!!linebreak:original
=6	=6	=6
16CKL	(16aaLL	.
8A 8c 8f	16ccc	.
.	16ff	.
16AJk 16c 16f	16aaJJ)	.
8CL	4cc^	.
8AJ 8c 8f	.	.
=7	=7	=7
16EKL	16r	.
8B- 8c 8e	(16b-LL	.
.	16cc	.
16B-Jk 16c 16e	16eeJJ	.
8CCL	16aaLL	.
.	16gg	.
8B-J 8c 8e	16cc	.
.	16cccJJ)	.
=8	=8	=8
16FFKL	(16ffLL	.
8A 8c 8f	16ccc	.
.	16aa	.
16AJk 16c 16f	16cccJJ)	.
8FFL	4ff 4fff	.
8AJ 8c 8f	.	.
=9:|!	=9:|!	=9:|!
8AL 8c 8f	4fff	.
8FFJ	.	.
4r	8r	.
.	8cc	.
=10||	=10||	=10||
*f:	*f:	*
*k[b-e-a-d-]	*k[b-e-a-d-]	*
.	(16qqcc/LL	.
.	16qqdd-/JJ)	.
16FKL	16ccKL	.
8A- 8c 8f	8bn	.
16A-Jk 16c 16f	16ccJk	.
8CL	8aa-L	.
8A-J 8c 8f	8aa-J	.
=11	=11	=11
16EnKL	8.aa-L	.
8B- 8c 8en	.	.
16B-Jk 16c 16e	16ggJk	.
8CL	(8cccL	.
8B-J 8c 8e	8ccJ)	.
!!linebreak:original
=12	=12	=12
16EnKL	16ccKL	.
8B- 8c 8en	8gg	.
16B-Jk 16c 16e	16bb-Jk	.
8CL	8aa-L	.
8B-J 8c 8e	8eenJ	.
=13	=13	=13
16FKL	8ggL	.
8A- 8c 8f	.	.
.	8ffJ	.
16A-Jk 16c 16f	.	.
8FFL	8r	.
8A-J 8c 8f	8ff	.
=14	=14	=14
16FKL	16eenKL	.
8An 8c 8e- 8f	8ff	.
16AJk 16c 16e- 16f	16aanJk	.
8AL	8cccL	.
8cJ 8e- 8f	8ee-XJ	.
=15	=15	=15
.	(16qqee-/LL	.
.	16qqff/JJ)	.
16BB-KL	8ee-L	.
8B- 8d- 8f	.	.
.	8dd-J	.
16B-Jk 16d- 16f	.	.
8BB-L	16r	.
.	8ffL	.
8B-J 8d- 8f	.	.
.	16ggJk	.
=16	=16	=16
16BBnKL	16aa-KL	.
8Bn 8dn 8a-	8gg	.
16BJk 16d 16a-	16ffJk	.
8BL 8d 8f 8a-	8eenL	.
8BJ 8d 8f 8a-	8ffJ	.
=17	=17	=17
16CKL	8ggL	.
8B- 8c 8en	.	.
.	8cccJ	.
16B-Jk 16c 16e	.	.
8EnL	8r	.
8B-J 8c 8e	8cc	.
!!linebreak:original
=18	=18	=18
.	(16qqcc/LL	.
.	16qqdd-/JJ	.
16FKL	16ccKL)	.
8A- 8c 8f	8bn	.
16A-Jk 16c 16f	16ccJk	.
8CL	8aa-L	.
8A-J 8c 8f	8aa-J	.
=19	=19	=19
16EnKL	8.aa-L	.
8B- 8c 8en	.	.
16B-Jk 16c 16e	16ggJk	.
8CL	8cccL	.
8B-J 8c 8e	8ccJ	.
=20	=20	=20
16EnKL	16ccKL	.
8B- 8c 8en	8gg	.
16B-Jk 16c 16e	16bb-Jk	.
8CL	8aa-L	.
8B-J 8c 8e	8eenJ	.
=21	=21	=21
16FKL	8ggL	.
8A- 8c 8f	.	.
.	8ffJ	.
16A-Jk 16c 16f	.	.
8F	8r	.
8r	8ff	.
=22	=22	=22
16AnKL	16ee-KL 16ff	.
8c 8e- 8f	8ee- 8ff	.
16cJk 16e- 16f	16ee-Jk 16ff	.
8FL	8ee-L 8ff	.
8cJ 8e- 8f	8ee-J 8ff	.
=23	=23	=23
16B-KL	16dd-KL 16ff	.
8d- 8f	8dd- 8ff	.
16d-Jk 16f	16dd-Jk 16ff	.
8B-L	16r	.
.	8ffL	.
8d-J 8f	.	.
.	16ggJk	.
!!linebreak:original
=24	=24	=24
16CKL	16ccKL 16aa-	.
8A- 8c 8f	8gg	.
16A-Jk 16c 16f	16ffJk	.
8CL	8b-L 8een	.
8B-J 8c 8en	8ggJ	.
=25	=25	=25
16FKL	[4a- [4ff	.
8A- 8c 8f	.	.
16A-Jk 16c 16f	.	.
4FF	4a-] 4ff]	.
=26!|:	=26!|:	=26!|:
*F:	*F:	*
*k[b-]	*k[b-]	*
*	*8va	*
!	!LO:TX:a:t=Fine	!
.	(8qcccc/	.
16CKL	4eeee^)	.
8B- 8c 8e	.	.
16B-Jk 16c 16e	.	.
8EL	16r	.
.	(16bbb-LL	.
8B-J 8c 8e	16dddd	.
.	16gggJJ)	.
=27	=27	=27
16CKL	(16aaaLL	.
8A 8c 8f	16cccc	.
.	16fff	.
16AJk 16c 16f	16aaaJJ	.
8CL	4ccc^)	.
8AJ 8c 8f	.	.
*	*X8va	*
=28	=28	=28
.	(8qccc/	.
16EKL	4eee^)	.
8B- 8c 8e	.	.
16B-Jk 16c 16e	.	.
8CL	16r	.
.	(16bb-LL	.
8B-J 8c 8e	16ddd	.
.	16ggJJ)	.
=29	=29	=29
16FFKL	(16aaLL	.
8A 8c 8f	16ccc	.
.	16ff	.
16AJk 16c 16f	16aaJJ)	.
8FL	4cc^	.
8AJ 8c 8f	.	.
!!pagebreak:original
=30	=30	=30
.	(8qbbn/	.
16GGKL	4fff^)	.
8G 8Bn 8f	.	.
16GJk 16B 16f	.	.
8DL	16r	.
.	(16bbLL	.
8GJ 8B 8f	16ddd	.
.	16ggJJ)	.
=31	=31	=31
16CKL	(16aaLL	.
8A 8c 8f	16ccc	.
.	16ff	.
16AJk 16c 16f	16aaJJ)	.
8CL	4cc^	.
8AJ 8c 8f	.	.
=32	=32	=32
16EKL	16r	.
8B- 8c 8e	(16b-LL	.
.	16cc	.
16B-Jk 16c 16e	16eeJJ	.
8CCL	16aaLL	.
.	16gg	.
8B-J 8c 8e	16cc	.
.	16cccJJ)	.
=33	=33	=33
16FFKL	(16ffLL	.
8A 8c 8f	16ccc	.
.	16aa	.
16AJk 16c 16f	16cccJJ)	.
8FFL	4ff 4fff	.
8AJ 8c 8f	.	.
=34:|!	=34:|!	=34:|!
8AL 8c 8f	4fff	.
8FFJ	.	.
4r	8r	.
.	8cc	.
==	==	==
*-	*-	*-
!!!system-decoration: {(s1,s2)}
!!!AGN: Tango
!!!EED: Florian Moldaschl
!!!END: 2025/12/26
!!!ENC: Florian Moldaschl
!!!EEV: 2026/01/14
!!!title: @{OPR}, @{SCT} №@{ONM}